X:95
T:SOLDJOY- The Soldier's Joy
S:Vocal Music, c 1778
Q:1/4=120
L:1/8
M:C|
K:D
(FG)|(AF) (DF) (AF DE)|D2d2d2(cA)|(AF) (DF) (AF) (AF)|\
G2E2E2(FG)|AF (DF) (AF) (DF)|D2d2d2(fg)|(af) (df) (ge) (ce)|\
d2d2d2||e2|(fe) (fg) (fa) (gf)|(ed) (cd) (ef) (ge)|\
(fe) (fg) (fa) (gf)|(ed) (cB) A2A2|(fe) (fg) (fa) gf|\
(ed) (cd) (ef) (ge)|(af) (df) (ge) ce|d2d2d2|]

